asset/ssp/feature2.svg

<?xml version="1.0" encoding="utf-8"?>
<!-- Generator: Adobe Illustrator 24.1.2, SVG Export Plug-In . SVG Version: 6.00 Build 0)  -->
<!DOCTYPE svg PUBLIC "-//W3C//DTD SVG 1.1//EN" "http://www.w3.org/Graphics/SVG/1.1/DTD/svg11.dtd" [
	<!ENTITY ns_extend "http://ns.adobe.com/Extensibility/1.0/">
	<!ENTITY ns_ai "http://ns.adobe.com/AdobeIllustrator/10.0/">
	<!ENTITY ns_graphs "http://ns.adobe.com/Graphs/1.0/">
	<!ENTITY ns_vars "http://ns.adobe.com/Variables/1.0/">
	<!ENTITY ns_imrep "http://ns.adobe.com/ImageReplacement/1.0/">
	<!ENTITY ns_sfw "http://ns.adobe.com/SaveForWeb/1.0/">
	<!ENTITY ns_custom "http://ns.adobe.com/GenericCustomNamespace/1.0/">
	<!ENTITY ns_adobe_xpath "http://ns.adobe.com/XPath/1.0/">
]>
<svg version="1.1" id="Layer_1" xmlns:x="&ns_extend;" xmlns:i="&ns_ai;" xmlns:graph="&ns_graphs;"
	 xmlns="http://www.w3.org/2000/svg" xmlns:xlink="http://www.w3.org/1999/xlink" x="0px" y="0px" width="139px" height="137px"
	 viewBox="0 0 139 137" style="enable-background:new 0 0 139 137;" xml:space="preserve">
<style type="text/css">
	.st0{fill:#E6EDEA;}
	.st1{clip-path:url(#SVGID_2_);}
	.st2{fill:#42CEC6;}
	.st3{fill:#2FB2B6;}
	.st4{fill:#C4C4C4;}
	.st5{fill:#A8A8A8;}
</style>
<metadata>
	<sfw  xmlns="&ns_sfw;">
		<slices></slices>
		<sliceSourceBounds  bottomLeftOrigin="true" height="137" width="138" x="0.5" y="0"></sliceSourceBounds>
	</sfw>
</metadata>
<path class="st0" d="M16.5,0h106c8.837,0,16,7.163,16,16v105c0,8.837-7.163,16-16,16h-106c-8.837,0-16-7.163-16-16V16
	C0.5,7.163,7.663,0,16.5,0z"/>
<g>
	<defs>
		<rect id="SVGID_1_" x="46" y="32" width="63" height="80.5"/>
	</defs>
	<clipPath id="SVGID_2_">
		<use xlink:href="#SVGID_1_"  style="overflow:visible;"/>
	</clipPath>
	<g class="st1">
		<path class="st2" d="M72.1,56.7c6.7-1.6,10.9-8.3,9.3-15s-8.3-10.9-15-9.3c-6.7,1.6-10.9,8.3-9.3,15
			C58.6,54.1,65.4,58.3,72.1,56.7z"/>
		<path class="st3" d="M72,95c0-10.8,8.7-19.5,19.5-19.5c0.2,0,0.3,0,0.5,0c-0.3-7.8-6.8-14-14.8-14H60.8C52.6,61.5,46,68,46,76.1
			v22c0,4.1,3.3,7.3,7.4,7.3h21.7C73.1,102.4,72,98.8,72,95z"/>
		<path class="st4" d="M83.3,98.7h1.1c0.1,0,0.3,0.1,0.3,0.2c0.2,0.3,0.3,0.6,0.5,0.9c0.1,0.1,0.1,0.3,0,0.4l-0.4,0.8
			c-0.1,0.2-0.1,0.4,0,0.5l1,1c0.1,0.1,0.3,0.1,0.5,0l0.9-0.6c0.1-0.1,0.3-0.1,0.4,0c0.3,0.2,0.6,0.4,0.9,0.5
			c0.1,0.1,0.2,0.2,0.2,0.3v1c0,0.3,0.1,0.4,0.3,0.5l1.3,0.4c0.2,0,0.3,0,0.4-0.2l0.5-1c0.1-0.1,0.2-0.2,0.3-0.2c0.3,0,0.7,0,1.1,0
			c0.1,0,0.3,0.1,0.3,0.2l0.5,0.9c0.1,0.2,0.3,0.3,0.5,0.3l1.3-0.4c0.2,0,0.3-0.2,0.3-0.4v-1.1c0-0.1,0.1-0.3,0.2-0.3
			c0.3-0.2,0.6-0.3,0.9-0.5c0.1-0.1,0.3-0.1,0.4,0l0.8,0.5c0.2,0.1,0.4,0.1,0.5,0l1-1c0.1-0.1,0.1-0.3,0-0.5l-0.6-0.9
			c-0.1-0.1-0.1-0.3,0-0.4c0.2-0.3,0.4-0.6,0.5-0.9c0.1-0.1,0.2-0.2,0.3-0.2h1c0.3,0,0.4-0.1,0.5-0.3l0.3-1.3c0-0.2,0-0.3-0.2-0.4
			l-1-0.5c-0.1-0.1-0.2-0.2-0.2-0.3c0-0.3,0-0.7,0-1.1c0-0.1,0.1-0.3,0.2-0.3L101,94c0.2-0.1,0.3-0.3,0.3-0.5l-0.3-1.3
			c0-0.2-0.2-0.3-0.4-0.3h-1.1c-0.1,0-0.3-0.1-0.3-0.2c-0.2-0.3-0.3-0.6-0.5-0.9c-0.1-0.1-0.1-0.3,0-0.4l0.5-0.8
			c0.1-0.2,0.1-0.4,0-0.5l-1-1c-0.1-0.1-0.3-0.1-0.5,0l-0.9,0.6c-0.1,0.1-0.3,0.1-0.4,0c-0.3-0.2-0.6-0.4-0.9-0.5
			c-0.1-0.1-0.2-0.2-0.2-0.3v-1c0-0.3-0.1-0.4-0.3-0.5L93.7,86c-0.2,0-0.3,0-0.4,0.2l-0.5,1c-0.1,0.1-0.2,0.2-0.3,0.2
			c-0.4,0-0.7,0-1.1,0c-0.1,0-0.3-0.1-0.3-0.2l-0.5-0.9c-0.1-0.2-0.3-0.3-0.5-0.3l-1.3,0.3c-0.2,0-0.3,0.2-0.3,0.4v1.1
			c0,0.1-0.1,0.3-0.2,0.3c-0.3,0.2-0.6,0.3-0.9,0.5c-0.1,0.1-0.3,0.1-0.4,0l-0.8-0.5c-0.2-0.2-0.4-0.1-0.5,0l-1,1
			c-0.1,0.1-0.1,0.3,0,0.5l0.6,0.9c0.1,0.1,0.1,0.3,0,0.4c-0.2,0.3-0.4,0.6-0.5,0.9c-0.1,0.1-0.2,0.2-0.3,0.2h-1
			c-0.3,0-0.4,0.1-0.5,0.3l-0.3,1.3c0,0.2,0,0.3,0.2,0.4l1,0.5c0.1,0.1,0.2,0.2,0.2,0.3c0,0.3,0,0.7,0,1.1c0,0.1-0.1,0.3-0.2,0.3
			L83,96.7c-0.2,0.1-0.3,0.3-0.3,0.5l0.3,1.3C83,98.6,83.2,98.7,83.3,98.7z M93.6,101.6c-1.7,0.4-3.3,0.2-4.7-0.5
			c-0.6-0.3-0.8-1.2-0.2-1.7l3-3c0.3-0.3,0.7-0.4,1.1-0.3l4.1,1.1c0.7,0.2,1,1,0.7,1.6C96.6,100.2,95.3,101.2,93.6,101.6z
			 M98.2,93.6c0.1,0.5,0.2,1,0.2,1.5c0,0.7-0.7,1.2-1.4,1.1l-4-1.1c-0.4-0.1-0.7-0.4-0.8-0.8l-1.1-4.1c-0.2-0.7,0.4-1.4,1.1-1.4
			C95,88.9,97.5,90.8,98.2,93.6z M90.1,90.5l1.1,4.1c0.1,0.4,0,0.8-0.3,1.1l-3,3c-0.5,0.5-1.4,0.4-1.7-0.2c-0.2-0.4-0.4-0.9-0.5-1.4
			c-0.8-2.8,0.5-5.7,2.8-7.2C89,89.4,89.9,89.8,90.1,90.5z"/>
		<path class="st5" d="M108.5,93.6l-1.9-0.4c-0.2,0-0.4-0.3-0.5-0.5c-0.1-0.6-0.3-1.2-0.5-1.8c-0.1-0.2,0-0.5,0.2-0.7l1.3-1.2
			c0.4-0.3,0.4-0.7,0.2-0.9l-1.2-2.1c-0.2-0.3-0.5-0.4-0.8-0.3l-1.9,0.6c-0.2,0.1-0.5,0-0.7-0.2c-0.4-0.5-0.9-0.9-1.4-1.4
			c-0.2-0.2-0.3-0.4-0.2-0.7l0.5-1.7c0.1-0.5,0-0.8-0.2-0.9l-2.1-1.2c-0.3-0.2-0.6-0.1-0.8,0.1l-1.3,1.4c-0.2,0.2-0.4,0.2-0.7,0.2
			c-0.6-0.2-1.2-0.4-1.9-0.5c-0.2,0-0.5-0.2-0.5-0.5l-0.4-1.7c-0.1-0.5-0.4-0.7-0.7-0.7h-2.4c-0.3,0-0.6,0.2-0.6,0.5l-0.4,1.9
			c0,0.2-0.3,0.4-0.5,0.5c-0.6,0.1-1.2,0.3-1.8,0.5c-0.2,0.1-0.5,0-0.7-0.2l-1.2-1.3c-0.3-0.4-0.7-0.4-0.9-0.2l-2.1,1.2
			c-0.3,0.2-0.4,0.5-0.3,0.8l0.6,1.9c0.1,0.2,0,0.5-0.2,0.7c-0.5,0.4-0.9,0.9-1.4,1.4c-0.2,0.2-0.4,0.3-0.7,0.2l-1.7-0.5
			c-0.5-0.2-0.8,0-0.9,0.2L76.7,88c-0.2,0.3-0.1,0.6,0.1,0.8l1.4,1.3c0.2,0.2,0.2,0.4,0.2,0.7c-0.2,0.6-0.4,1.2-0.5,1.9
			c0,0.2-0.2,0.5-0.5,0.5l-1.7,0.4C75.2,93.7,75,94,75,94.3v2.4c0,0.3,0.2,0.6,0.5,0.6l1.9,0.4c0.2,0,0.4,0.3,0.5,0.5
			c0.1,0.6,0.3,1.2,0.5,1.8c0.1,0.2,0,0.5-0.2,0.7l-1.3,1.3c-0.4,0.3-0.4,0.7-0.2,0.9l1.2,2.1c0.2,0.3,0.5,0.4,0.8,0.3l1.9-0.6
			c0.2-0.1,0.5,0,0.7,0.2c0.4,0.5,0.9,0.9,1.4,1.4c0.2,0.2,0.3,0.4,0.2,0.7l-0.5,1.7c-0.1,0.5,0,0.8,0.2,0.9l2.1,1.2
			c0.3,0.2,0.6,0.1,0.8-0.1l1.3-1.4c0.2-0.2,0.4-0.2,0.7-0.2c0.6,0.2,1.2,0.4,1.9,0.5c0.2,0,0.5,0.2,0.5,0.5l0.4,1.7
			c0.1,0.5,0.4,0.7,0.7,0.7h2.4c0.3,0,0.6-0.2,0.6-0.5l0.4-1.9c0-0.2,0.3-0.4,0.5-0.5c0.6-0.1,1.2-0.3,1.8-0.5
			c0.2-0.1,0.5,0,0.7,0.2l1.2,1.3c0.3,0.4,0.7,0.4,0.9,0.2l2.1-1.2c0.3-0.2,0.4-0.5,0.3-0.8l-0.6-1.8c-0.1-0.2,0-0.5,0.2-0.7
			c0.5-0.4,0.9-0.9,1.4-1.4c0.2-0.2,0.4-0.3,0.7-0.2l1.7,0.5c0.5,0.1,0.8,0,0.9-0.2l1.2-2.1c0.2-0.3,0.1-0.6-0.1-0.8l-1.4-1.3
			c-0.2-0.2-0.2-0.4-0.2-0.7c0.2-0.6,0.4-1.2,0.5-1.9c0-0.2,0.2-0.5,0.5-0.5l1.7-0.4c0.5-0.1,0.7-0.4,0.7-0.7v-2.4
			C109,93.9,108.8,93.7,108.5,93.6z M81.3,90.4c1-2.1,2.6-3.9,4.8-5.2c2.2-1.2,4.5-1.7,6.8-1.5c1.9,0.2,3,2.3,2.1,3.9l-3,5.2
			c-1,0-1.8,0.6-2.3,1.4h-6C81.8,94.2,80.5,92.2,81.3,90.4z M93.3,95.5c0,0.7-0.6,1.3-1.3,1.3s-1.3-0.6-1.3-1.3s0.6-1.3,1.3-1.3
			S93.3,94.8,93.3,95.5z M93.1,107.2c-4.4,0.4-8.9-1.7-11.3-5.8c-0.2-0.3-0.3-0.6-0.5-0.9c-0.8-1.7,0.5-3.6,2.4-3.6h6
			c0.5,0.8,1.3,1.3,2.2,1.3l3,5.2C95.9,104.9,94.9,107,93.1,107.2z M101.6,102.3c-1.1,1.5-3.4,1.4-4.4-0.3l-2.7-4.6
			c-0.1-0.2-0.2-0.4-0.3-0.7c0.2-0.4,0.3-0.8,0.3-1.2c0-0.5-0.1-0.9-0.3-1.3l3-5.2c0.9-1.6,3.3-1.8,4.4-0.3c0.2,0.3,0.4,0.6,0.6,0.9
			C104.6,93.7,104.2,98.6,101.6,102.3z"/>
	</g>
</g>
</svg>

<svg width="139" height="137" viewBox="0 0 139 137" fill="none" xmlns="http://www.w3.org/2000/svg">
<rect x="0.5" width="138" height="137" rx="16" fill="#EDF7F4"/>
<g clip-path="url(#clip0)">
<path d="M72.1 56.6998C78.8 55.0998 83 48.3998 81.4 41.6998C79.8 34.9998 73.1 30.7998 66.4 32.3998C59.7 33.9998 55.5 40.6998 57.1 47.3998C58.6 54.0998 65.4 58.2998 72.1 56.6998Z" fill="#42CEC6"/>
<path d="M72 95C72 84.2 80.7 75.5 91.5 75.5C91.7 75.5 91.8 75.5 92 75.5C91.7 67.7 85.2 61.5 77.2 61.5H60.8C52.6 61.5 46 68 46 76.1V98.1C46 102.2 49.3 105.4 53.4 105.4H75.1C73.1 102.4 72 98.8 72 95Z" fill="#2FB2B6"/>
<path d="M83.2999 98.7H84.4C84.5 98.7 84.7 98.8 84.7 98.9C84.9 99.2 85 99.5 85.2 99.8C85.3 99.9 85.3 100.1 85.2 100.2L84.7999 101C84.6999 101.2 84.6999 101.4 84.7999 101.5L85.7999 102.5C85.8999 102.6 86.0999 102.6 86.2999 102.5L87.2 101.9C87.3 101.8 87.4999 101.8 87.5999 101.9C87.8999 102.1 88.2 102.3 88.5 102.4C88.6 102.5 88.7 102.6 88.7 102.7V103.7C88.7 104 88.8 104.1 89 104.2L90.2999 104.6C90.4999 104.6 90.6 104.6 90.7 104.4L91.2 103.4C91.3 103.3 91.4 103.2 91.5 103.2C91.8 103.2 92.1999 103.2 92.5999 103.2C92.6999 103.2 92.9 103.3 92.9 103.4L93.4 104.3C93.5 104.5 93.7 104.6 93.9 104.6L95.2 104.2C95.4 104.2 95.5 104 95.5 103.8V102.7C95.5 102.6 95.6 102.4 95.7 102.4C96 102.2 96.2999 102.1 96.5999 101.9C96.6999 101.8 96.9 101.8 97 101.9L97.7999 102.4C97.9999 102.5 98.1999 102.5 98.2999 102.4L99.2999 101.4C99.4 101.3 99.4 101.1 99.2999 100.9L98.7 100C98.6 99.9 98.6 99.7 98.7 99.6C98.9 99.3 99.1 99 99.2 98.7C99.3 98.6 99.4 98.5 99.5 98.5H100.5C100.8 98.5 100.9 98.4 101 98.2L101.3 96.9C101.3 96.7 101.3 96.6 101.1 96.5L100.1 96C99.9999 95.9 99.9 95.8 99.9 95.7C99.9 95.4 99.9 95 99.9 94.6C99.9 94.5 99.9999 94.3 100.1 94.3L101 94C101.2 93.9 101.3 93.7 101.3 93.5L101 92.2C101 92 100.8 91.9 100.6 91.9H99.5C99.4 91.9 99.2 91.8 99.2 91.7C99 91.4 98.9 91.1 98.7 90.8C98.6 90.7 98.6 90.5 98.7 90.4L99.2 89.6C99.3 89.4 99.3 89.2 99.2 89.1L98.2 88.1C98.1 88 97.9 88 97.7 88.1L96.7999 88.7C96.6999 88.8 96.5 88.8 96.4 88.7C96.1 88.5 95.8 88.3 95.5 88.2C95.4 88.1 95.2999 88 95.2999 87.9V86.9C95.2999 86.6 95.2 86.5 95 86.4L93.7 86C93.5 86 93.4 86 93.2999 86.2L92.7999 87.2C92.6999 87.3 92.6 87.4 92.5 87.4C92.1 87.4 91.8 87.4 91.4 87.4C91.3 87.4 91.0999 87.3 91.0999 87.2L90.5999 86.3C90.4999 86.1 90.2999 86 90.0999 86L88.7999 86.3C88.5999 86.3 88.5 86.5 88.5 86.7V87.8C88.5 87.9 88.3999 88.1 88.2999 88.1C87.9999 88.3 87.7 88.4 87.4 88.6C87.3 88.7 87.1 88.7 87 88.6L86.2 88.1C86 87.9 85.8 88 85.7 88.1L84.7 89.1C84.6 89.2 84.6 89.4 84.7 89.6L85.2999 90.5C85.3999 90.6 85.3999 90.8 85.2999 90.9C85.0999 91.2 84.8999 91.5 84.7999 91.8C84.6999 91.9 84.6 92 84.5 92H83.5C83.2 92 83.1 92.1 83 92.3L82.7 93.6C82.7 93.8 82.7 93.9 82.9 94L83.9 94.5C84 94.6 84.0999 94.7 84.0999 94.8C84.0999 95.1 84.0999 95.5 84.0999 95.9C84.0999 96 84 96.2 83.9 96.2L83 96.7C82.8 96.8 82.7 97 82.7 97.2L83 98.5C83 98.6 83.1999 98.7 83.2999 98.7ZM93.5999 101.6C91.8999 102 90.3 101.8 88.9 101.1C88.3 100.8 88.1 99.9 88.7 99.4L91.7 96.4C92 96.1 92.4 96 92.7999 96.1L96.9 97.2C97.6 97.4 97.8999 98.2 97.5999 98.8C96.5999 100.2 95.2999 101.2 93.5999 101.6ZM98.2 93.6C98.3 94.1 98.4 94.6 98.4 95.1C98.4 95.8 97.7 96.3 97 96.2L93 95.1C92.6 95 92.3 94.7 92.2 94.3L91.0999 90.2C90.8999 89.5 91.5 88.8 92.2 88.8C95 88.9 97.5 90.8 98.2 93.6ZM90.0999 90.5L91.2 94.6C91.3 95 91.2 95.4 90.9 95.7L87.9 98.7C87.4 99.2 86.5 99.1 86.2 98.5C86 98.1 85.8 97.6 85.7 97.1C84.9 94.3 86.2 91.4 88.5 89.9C89 89.4 89.8999 89.8 90.0999 90.5Z" fill="#C4C4C4"/>
<path d="M108.5 93.6L106.6 93.2C106.4 93.2 106.2 92.9 106.1 92.7C106 92.1 105.8 91.5 105.6 90.9C105.5 90.7 105.6 90.4 105.8 90.2L107.1 89C107.5 88.7 107.5 88.3 107.3 88.1L106.1 86C105.9 85.7 105.6 85.6 105.3 85.7L103.4 86.3C103.2 86.4 102.9 86.3 102.7 86.1C102.3 85.6 101.8 85.2 101.3 84.7C101.1 84.5 101 84.3 101.1 84L101.6 82.3C101.7 81.8 101.6 81.5 101.4 81.4L99.3 80.2C99 80 98.7 80.1 98.5 80.3L97.2 81.7C97 81.9 96.8 81.9 96.5 81.9C95.9 81.7 95.3 81.5 94.6 81.4C94.4 81.4 94.1 81.2 94.1 80.9L93.7 79.2C93.6 78.7 93.3 78.5 93 78.5H90.6C90.3 78.5 90 78.7 90 79L89.6 80.9C89.6 81.1 89.3 81.3 89.1 81.4C88.5 81.5 87.9 81.7 87.3 81.9C87.1 82 86.8 81.9 86.6 81.7L85.4 80.4C85.1 80 84.7 80 84.5 80.2L82.4 81.4C82.1 81.6 82 81.9 82.1 82.2L82.7 84.1C82.8 84.3 82.7 84.6 82.5 84.8C82 85.2 81.6 85.7 81.1 86.2C80.9 86.4 80.7 86.5 80.4 86.4L78.7 85.9C78.2 85.7 77.9 85.9 77.8 86.1L76.7 88C76.5 88.3 76.6 88.6 76.8 88.8L78.2 90.1C78.4 90.3 78.4 90.5 78.4 90.8C78.2 91.4 78 92 77.9 92.7C77.9 92.9 77.7 93.2 77.4 93.2L75.7 93.6C75.2 93.7 75 94 75 94.3V96.7C75 97 75.2 97.3 75.5 97.3L77.4 97.7C77.6 97.7 77.8 98 77.9 98.2C78 98.8 78.2 99.4 78.4 100C78.5 100.2 78.4 100.5 78.2 100.7L76.9 102C76.5 102.3 76.5 102.7 76.7 102.9L77.9 105C78.1 105.3 78.4 105.4 78.7 105.3L80.6 104.7C80.8 104.6 81.1 104.7 81.3 104.9C81.7 105.4 82.2 105.8 82.7 106.3C82.9 106.5 83 106.7 82.9 107L82.4 108.7C82.3 109.2 82.4 109.5 82.6 109.6L84.7 110.8C85 111 85.3 110.9 85.5 110.7L86.8 109.3C87 109.1 87.2 109.1 87.5 109.1C88.1 109.3 88.7 109.5 89.4 109.6C89.6 109.6 89.9 109.8 89.9 110.1L90.3 111.8C90.4 112.3 90.7 112.5 91 112.5H93.4C93.7 112.5 94 112.3 94 112L94.4 110.1C94.4 109.9 94.7 109.7 94.9 109.6C95.5 109.5 96.1 109.3 96.7 109.1C96.9 109 97.2 109.1 97.4 109.3L98.6 110.6C98.9 111 99.3 111 99.5 110.8L101.6 109.6C101.9 109.4 102 109.1 101.9 108.8L101.3 107C101.2 106.8 101.3 106.5 101.5 106.3C102 105.9 102.4 105.4 102.9 104.9C103.1 104.7 103.3 104.6 103.6 104.7L105.3 105.2C105.8 105.3 106.1 105.2 106.2 105L107.4 102.9C107.6 102.6 107.5 102.3 107.3 102.1L105.9 100.8C105.7 100.6 105.7 100.4 105.7 100.1C105.9 99.5 106.1 98.9 106.2 98.2C106.2 98 106.4 97.7 106.7 97.7L108.4 97.3C108.9 97.2 109.1 96.9 109.1 96.6V94.2C109 93.9 108.8 93.7 108.5 93.6ZM81.3 90.4C82.3 88.3 83.9 86.5 86.1 85.2C88.3 84 90.6 83.5 92.9 83.7C94.8 83.9 95.9 86 95 87.6L92 92.8C91 92.8 90.2 93.4 89.7 94.2H83.7C81.8 94.2 80.5 92.2 81.3 90.4ZM93.3 95.5C93.3 96.2 92.7 96.8 92 96.8C91.3 96.8 90.7 96.2 90.7 95.5C90.7 94.8 91.3 94.2 92 94.2C92.7 94.2 93.3 94.8 93.3 95.5ZM93.1 107.2C88.7 107.6 84.2 105.5 81.8 101.4C81.6 101.1 81.5 100.8 81.3 100.5C80.5 98.8 81.8 96.9 83.7 96.9H89.7C90.2 97.7 91 98.2 91.9 98.2L94.9 103.4C95.9 104.9 94.9 107 93.1 107.2ZM101.6 102.3C100.5 103.8 98.2 103.7 97.2 102L94.5 97.4C94.4 97.2 94.3 97 94.2 96.7C94.4 96.3 94.5 95.9 94.5 95.5C94.5 95 94.4 94.6 94.2 94.2L97.2 89C98.1 87.4 100.5 87.2 101.6 88.7C101.8 89 102 89.3 102.2 89.6C104.6 93.7 104.2 98.6 101.6 102.3Z" fill="#A8A8A8"/>
</g>
<defs>
<clipPath id="clip0">
<rect width="63" height="80.5" fill="white" transform="translate(46 32)"/>
</clipPath>
</defs>
</svg>
